svgs/sharp-regular/square-z.svg

<svg xmlns="http://www.w3.org/2000/svg" viewBox="0 0 448 512"><!--! Font Awesome Pro 6.6.0 by @fontawesome - https://fontawesome.com License - https://fontawesome.com/license (Commercial License) Copyright 2024 Fonticons, Inc. --><path d="M48 80l0 352 352 0 0-352L48 80zM0 32l48 0 352 0 48 0 0 48 0 352 0 48-48 0L48 480 0 480l0-48L0 80 0 32zM336 160.8l-5.7 6.7L187.7 336 312 336l24 0 0 48-24 0-176 0-24 0 0-32.8 5.7-6.7L260.3 176 136 176l-24 0 0-48 24 0 176 0 24 0 0 32.8z"/></svg>

<svg xmlns="http://www.w3.org/2000/svg" viewBox="0 0 448 512"><!--! Font Awesome Pro 6.4.0 by @fontawesome - https://fontawesome.com License - https://fontawesome.com/license (Commercial License) Copyright 2023 Fonticons, Inc. --><path d="M48 80V432H400V80H48zM0 32H48 400h48V80 432v48H400 48 0V432 80 32zM336 160.8l-5.7 6.7L187.7 336H312h24v48H312 136 112V351.2l5.7-6.7L260.3 176H136 112V128h24H312h24v32.8z"/></svg>
